X:1
T:Psalm 33b
C:Sing vrolik, hef die stem na bowe; ...(11) - 2. Tweede wysie
C:Zingt vroolijk, hef de stem naar boven - AC van Velden 1919
L:1/4
M:2/2
K:F
Q:1/2=100
yy C | A2 G2 | F F G A | B2 G 
yyyy G | c E F G | A2 G2 | F3 
yyyy F | G2 A2 | B G c B | A2 G2 |
yyyy c2 F B | A G F E | F4 |
yyyy c A d c | B2 A2 | c A G F | F2 E2 |
yyyy G c E D | C4 |
yyyy F F G A | B2 G2 | c A B c | d2 c2 | 
yyyyc F A G | F4 yy |]
